protochess-front/static/images/chess_pieces/white/p.svg

<svg xmlns="http://www.w3.org/2000/svg" viewBox="-0.57 1 45 45" width="100%" height="100%" xmlns:v="https://vecta.io/nano"><path d="M22 9a4 4 0 0 0-4 4c0 .9.3 1.7.78 2.38-1.95 1.12-3.28 3.2-3.28 5.62 0 2.03.94 3.84 2.4 5.03-3 1.06-7.4 5.55-7.4 13.47h23c0-7.92-4.4-12.4-7.4-13.47 1.47-1.2 2.4-3 2.4-5.03 0-2.4-1.33-4.5-3.28-5.62.5-.67.78-1.5.78-2.38a4 4 0 0 0-4-4z" fill="#fff" stroke="#000" stroke-width="1.5"/></svg>

<?xml version="1.0" encoding="UTF-8" standalone="no"?>
<!DOCTYPE svg PUBLIC "-//W3C//DTD SVG 1.1//EN" "http://www.w3.org/Graphics/SVG/1.1/DTD/svg11.dtd">
<svg viewBox="-0.57 1 45 45" xmlns="http://www.w3.org/2000/svg" version="1.1" width="100%" height="100%">
    <path
            d="M 22,9 C 19.79,9 18,10.79 18,13 C 18,13.89 18.29,14.71 18.78,15.38 C 16.83,16.5 15.5,18.59 15.5,21 C 15.5,23.03 16.44,24.84 17.91,26.03 C 14.91,27.09 10.5,31.58 10.5,39.5 L 33.5,39.5 C 33.5,31.58 29.09,27.09 26.09,26.03 C 27.56,24.84 28.5,23.03 28.5,21 C 28.5,18.59 27.17,16.5 25.22,15.38 C 25.71,14.71 26,13.89 26,13 C 26,10.79 24.21,9 22,9 z "
            style="opacity:1; fill:#ffffff; fill-opacity:1; fill-rule:nonzero; stroke:#000000; stroke-width:1.5; stroke-linecap:round; stroke-linejoin:miter; stroke-miterlimit:4; stroke-dasharray:none; stroke-opacity:1;"/>
</svg>
